_site/images/features/icons/terms.svg

<svg height="34" viewBox="0 0 28 34" width="28" xmlns="http://www.w3.org/2000/svg"><path d="m8.5 13.6h1.7c.9388841 0 1.7-.7611159 1.7-1.7s-.7611159-1.7-1.7-1.7h-1.7c-.93888407 0-1.7.7611159-1.7 1.7s.76111593 1.7 1.7 1.7zm0 3.4c-.93888407 0-1.7.7611159-1.7 1.7s.76111593 1.7 1.7 1.7h10.2c.9388841 0 1.7-.7611159 1.7-1.7s-.7611159-1.7-1.7-1.7zm18.7-5.202c-.0177077-.1561707-.0518982-.310028-.102-.459v-.153c-.0817378-.1747944-.1907675-.3354698-.323-.476l-10.2-10.2c-.1405302-.13223245-.3012056-.24126216-.476-.323-.0507453-.00720769-.1022547-.00720769-.153 0-.1726948-.0990397-.3634203-.16261485-.561-.187h-10.285c-2.81665222 0-5.1 2.28334778-5.1 5.1v23.8c0 2.8166522 2.28334778 5.1 5.1 5.1h17c2.8166522 0 5.1-2.2833478 5.1-5.1v-17s0 0 0-.102zm-10.2-6.001 4.403 4.403h-2.703c-.9388841 0-1.7-.76111593-1.7-1.7zm6.8 23.103c0 .9388841-.7611159 1.7-1.7 1.7h-17c-.93888407 0-1.7-.7611159-1.7-1.7v-23.8c0-.93888407.76111593-1.7 1.7-1.7h8.5v5.1c0 2.8166522 2.2833478 5.1 5.1 5.1h5.1zm-5.1-5.1h-10.2c-.93888407 0-1.7.7611159-1.7 1.7s.76111593 1.7 1.7 1.7h10.2c.9388841 0 1.7-.7611159 1.7-1.7s-.7611159-1.7-1.7-1.7z" fill="#0b7a76"/></svg>

<?xml version="1.0" encoding="UTF-8"?>
<svg width="28px" height="34px" viewBox="0 0 28 34" version="1.1" xmlns="http://www.w3.org/2000/svg" xmlns:xlink="http://www.w3.org/1999/xlink">
    <!-- Generator: Sketch 52.6 (67491) - http://www.bohemiancoding.com/sketch -->
    <title>file-alt</title>
    <desc>Created with Sketch.</desc>
    <g id="Landing-page" stroke="none" stroke-width="1" fill="none" fill-rule="evenodd">
        <g id="1.3--Features" transform="translate(-173.000000, -2258.000000)" fill="#0B7A76" fill-rule="nonzero">
            <g id="Group-11" transform="translate(173.000000, 2258.000000)">
                <g id="Group-8">
                    <g id="file-alt">
                        <path d="M8.5,13.6 L10.2,13.6 C11.1388841,13.6 11.9,12.8388841 11.9,11.9 C11.9,10.9611159 11.1388841,10.2 10.2,10.2 L8.5,10.2 C7.56111593,10.2 6.8,10.9611159 6.8,11.9 C6.8,12.8388841 7.56111593,13.6 8.5,13.6 Z M8.5,17 C7.56111593,17 6.8,17.7611159 6.8,18.7 C6.8,19.6388841 7.56111593,20.4 8.5,20.4 L18.7,20.4 C19.6388841,20.4 20.4,19.6388841 20.4,18.7 C20.4,17.7611159 19.6388841,17 18.7,17 L8.5,17 Z M27.2,11.798 C27.1822923,11.6418293 27.1481018,11.487972 27.098,11.339 L27.098,11.186 C27.0162622,11.0112056 26.9072325,10.8505302 26.775,10.71 L16.575,0.51 C16.4344698,0.377767549 16.2737944,0.268737838 16.099,0.187 C16.0482547,0.179792313 15.9967453,0.179792313 15.946,0.187 C15.7733052,0.0879603028 15.5825797,0.0243851464 15.385,0 L5.1,0 C2.28334778,-3.77475828e-16 0,2.28334778 0,5.1 L0,28.9 C0,31.7166522 2.28334778,34 5.1,34 L22.1,34 C24.9166522,34 27.2,31.7166522 27.2,28.9 L27.2,11.9 C27.2,11.9 27.2,11.9 27.2,11.798 Z M17,5.797 L21.403,10.2 L18.7,10.2 C17.7611159,10.2 17,9.43888407 17,8.5 L17,5.797 Z M23.8,28.9 C23.8,29.8388841 23.0388841,30.6 22.1,30.6 L5.1,30.6 C4.16111593,30.6 3.4,29.8388841 3.4,28.9 L3.4,5.1 C3.4,4.16111593 4.16111593,3.4 5.1,3.4 L13.6,3.4 L13.6,8.5 C13.6,11.3166522 15.8833478,13.6 18.7,13.6 L23.8,13.6 L23.8,28.9 Z M18.7,23.8 L8.5,23.8 C7.56111593,23.8 6.8,24.5611159 6.8,25.5 C6.8,26.4388841 7.56111593,27.2 8.5,27.2 L18.7,27.2 C19.6388841,27.2 20.4,26.4388841 20.4,25.5 C20.4,24.5611159 19.6388841,23.8 18.7,23.8 Z" id="Shape"></path>
                    </g>
                </g>
            </g>
        </g>
    </g>
</svg>
